lib/functional/design/grid-four.svg

<svg xmlns="http://www.w3.org/2000/svg" fill="none" stroke="currentColor" aria-hidden="true" viewBox="0 0 32 32"><g id="Icon-GridFour"><g clip-path="url(#clip0_8_1111)"><g id="size=md (32px)"><g id="GridFour"><path id="Vector" stroke-linecap="round" stroke-linejoin="round" stroke-width="2" d="M25.5 5.5H6.5C5.94772 5.5 5.5 5.94772 5.5 6.5V25.5C5.5 26.0523 5.94772 26.5 6.5 26.5H25.5C26.0523 26.5 26.5 26.0523 26.5 25.5V6.5C26.5 5.94772 26.0523 5.5 25.5 5.5Z"/><path id="Vector_2" stroke-linecap="round" stroke-linejoin="round" stroke-width="2" d="M16 5.5V26.5"/><path id="Vector_3" stroke-linecap="round" stroke-linejoin="round" stroke-width="2" d="M26.5 16H5.5"/></g></g></g></g><defs><clipPath id="clip0_8_1111"><rect width="32" height="32" fill="white" rx="5"/></clipPath></defs></svg>

<svg xmlns="http://www.w3.org/2000/svg" fill="none" stroke="currentColor" aria-hidden="true" viewBox="0 0 32 32"><g stroke="#101828" stroke-linecap="round" stroke-linejoin="round" stroke-width="2" clip-path="url(#a)"><path d="M25.5 5.5h-19a1 1 0 0 0-1 1v19a1 1 0 0 0 1 1h19a1 1 0 0 0 1-1v-19a1 1 0 0 0-1-1Zm-9.5 0v21M26.5 16h-21"/></g><defs><clipPath id="a"><rect width="32" height="32" fill="#fff" rx="5"/></clipPath></defs></svg>
